udata_front/theme/gouvfr/templates/svg/search/organization.svg

<svg fill="none" height="19" viewBox="0 0 20 19" width="20" xmlns="http://www.w3.org/2000/svg"><path d="m19.375 17h-.625v-1.5625c0-.5078-.4297-.9375-.9375-.9375h-1.5625v-6.875h-1.25v6.875h-2.5v-6.875h-1.25v6.875h-2.5v-6.875h-1.25v6.875h-2.5v-6.875h-1.25v6.875h-1.5625c-.54688 0-.9375.4297-.9375.9375v1.5625h-.625c-.351562 0-.625.3125-.625.625v.3125c0 .1953.117188.3125.3125.3125h19.375c.1563 0 .3125-.1172.3125-.3125v-.3125c0-.3125-.3125-.625-.625-.625zm-16.875-1.25h15v1.25h-15zm17.1875-10.9375-9.1016-3.945312c-.1562-.039063-.4297-.117188-.5859-.117188-.19531 0-.46875.078125-.625.117188l-9.101562 3.945312c-.15625.07812-.273438.27344-.273438.46875v.3125c0 .27344.195312.46875.46875.46875h.78125v.46875c0 .27344.19531.46875.46875.46875h16.56245c.2344 0 .4688-.19531.4688-.46875v-.46875h.7812c.2344 0 .4688-.19531.4688-.46875v-.3125c0-.19531-.1562-.39063-.3125-.46875zm-2.1875.9375h-15v-.50781l7.30469-3.20313c.07812 0 .11719-.03906.19531-.03906.0391 0 .0781.03906.1562.03906l7.3438 3.20313z" fill="#3a3a3a"/></svg>

<svg width="20" height="19" viewBox="0 0 20 19" fill="none" xmlns="http://www.w3.org/2000/svg">
<path d="M19.375 17H18.75V15.4375C18.75 14.9297 18.3203 14.5 17.8125 14.5H16.25V7.625H15V14.5H12.5V7.625H11.25V14.5H8.75V7.625H7.5V14.5H5V7.625H3.75V14.5H2.1875C1.64062 14.5 1.25 14.9297 1.25 15.4375V17H0.625C0.273438 17 0 17.3125 0 17.625V17.9375C0 18.1328 0.117188 18.25 0.3125 18.25H19.6875C19.8438 18.25 20 18.1328 20 17.9375V17.625C20 17.3125 19.6875 17 19.375 17ZM2.5 15.75H17.5V17H2.5V15.75ZM19.6875 4.8125L10.5859 0.867188C10.4297 0.828125 10.1562 0.75 10 0.75C9.80469 0.75 9.53125 0.828125 9.375 0.867188L0.273438 4.8125C0.117188 4.89062 0 5.08594 0 5.28125V5.59375C0 5.86719 0.195312 6.0625 0.46875 6.0625H1.25V6.53125C1.25 6.80469 1.44531 7 1.71875 7H18.2812C18.5156 7 18.75 6.80469 18.75 6.53125V6.0625H19.5312C19.7656 6.0625 20 5.86719 20 5.59375V5.28125C20 5.08594 19.8438 4.89062 19.6875 4.8125ZM17.5 5.75H2.5V5.24219L9.80469 2.03906C9.88281 2.03906 9.92188 2 10 2C10.0391 2 10.0781 2.03906 10.1562 2.03906L17.5 5.24219V5.75Z" fill="#3A3A3A"/>
</svg>
